X: 3241
M: 6/8
L: 1/8
K: D
(3(A/B/c/) |\
d2D FGA | Bed cBA | d2D FGA | Bec d2 ::\
fed fed | fed fed | ecd ecd | egf e3 |\
dcB dcB | dcB dcB | ced ced | ced c2 :|


